X:1
T:Kilteery
L:1/8
M:4/4
I:linebreak $
K:F
V:1 treble 
V:1
 F2 GF DCCD | FGAc dccA | GcAG FDDG | FCDE F4 :| AccB Acfc |$ acfc ABBB | Acc/c/c dcAG | FCDE F4 :| %8
